Catalina-dark/actions/16/node-transform.svg

<svg width="16" height="16" version="1.1" viewBox="0 0 16 16" xmlns="http://www.w3.org/2000/svg">
<defs>
<style id="current-color-scheme" type="text/css">.ColorScheme-Text { color:#5c616c; } .ColorScheme-Highlight { color:#5294e2; }</style>
</defs>
<path class="ColorScheme-Text" d="m0 0v5l1.5-1.5 2 2-1.5 1.5h5v-5l-1.5 1.5-2-2 1.5-1.5h-5zm11 0 1.5 1.5-2 2-1.5-1.5v5h5l-1.5-1.5 2-2 1.5 1.5v-5h-5zm-9 9 1.5 1.5-2 2-1.5-1.5v5h5l-1.5-1.5 2-2 1.5 1.5v-5h-5zm7 0v5l1.5-1.5 2 2-1.5 1.5h5v-5l-1.5 1.5-2-2 1.5-1.5h-5z" fill="#f1f6f8" fill-opacity=".85098"/>
</svg>

<?xml version="1.0" encoding="UTF-8" standalone="no"?>
<svg
   xmlns:dc="http://purl.org/dc/elements/1.1/"
   xmlns:cc="http://creativecommons.org/ns#"
   xmlns:rdf="http://www.w3.org/1999/02/22-rdf-syntax-ns#"
   xmlns:svg="http://www.w3.org/2000/svg"
   xmlns="http://www.w3.org/2000/svg"
   xmlns:sodipodi="http://sodipodi.sourceforge.net/DTD/sodipodi-0.dtd"
   xmlns:inkscape="http://www.inkscape.org/namespaces/inkscape"
   width="16"
   height="16"
   viewBox="0 0 16 16"
   version="1.1"
   id="svg7"
   sodipodi:docname="node-transform.svg"
   inkscape:version="0.92.4 5da689c313, 2019-01-14">
  <metadata
     id="metadata11">
    <rdf:RDF>
      <cc:Work
         rdf:about="">
        <dc:format>image/svg+xml</dc:format>
        <dc:type
           rdf:resource="http://purl.org/dc/dcmitype/StillImage" />
      </cc:Work>
    </rdf:RDF>
  </metadata>
  <sodipodi:namedview
     pagecolor="#ffffff"
     bordercolor="#666666"
     borderopacity="1"
     objecttolerance="10"
     gridtolerance="10"
     guidetolerance="10"
     inkscape:pageopacity="0"
     inkscape:pageshadow="2"
     inkscape:window-width="640"
     inkscape:window-height="480"
     id="namedview9"
     showgrid="false"
     inkscape:zoom="14.75"
     inkscape:cx="6.8135593"
     inkscape:cy="8"
     inkscape:window-x="0"
     inkscape:window-y="26"
     inkscape:window-maximized="0"
     inkscape:current-layer="svg7" />
  <defs
     id="defs3">
    <style
       id="current-color-scheme"
       type="text/css">
   .ColorScheme-Text { color:#5c616c; } .ColorScheme-Highlight { color:#5294e2; }
  </style>
  </defs>
  <path
     style="fill:#f1f6f8;fill-opacity:0.8509804"
     class="ColorScheme-Text"
     d="M 0 0 L 0 5 L 1.5 3.5 L 3.5 5.5 L 2 7 L 7 7 L 7 2 L 5.5 3.5 L 3.5 1.5 L 5 0 L 0 0 z M 11 0 L 12.5 1.5 L 10.5 3.5 L 9 2 L 9 7 L 14 7 L 12.5 5.5 L 14.5 3.5 L 16 5 L 16 0 L 11 0 z M 2 9 L 3.5 10.5 L 1.5 12.5 L 0 11 L 0 16 L 5 16 L 3.5 14.5 L 5.5 12.5 L 7 14 L 7 9 L 2 9 z M 9 9 L 9 14 L 10.5 12.5 L 12.5 14.5 L 11 16 L 16 16 L 16 11 L 14.5 12.5 L 12.5 10.5 L 14 9 L 9 9 z"
     id="path5" />
</svg>
